X: 4125
T: SWEET MOLLY
R: Strathspey.
%R: strathspey
B: James Kerr "Merry Melodies" v.4 p.15 #125
Z: 2016 John Chambers <jc:trillian.mit.edu>
M: C
L: 1/8
K: Em
|:\
E<e e>f e2d>B | d>ef>d e>Bd>A |\
B<e e>f e2d>B | A>Bd>F E/E/E E2 ::\
F<F F>E D>EF>A | B<B B>A B>de>f |\
d>Bd>A B<e e>f | d>Bd>F E/E/E E2 :|

%%sep 1 1 500
%%sep 1 1 500

